!!!COM: Palestrina, Giovanni Perluigi da
!!!OPR: Pro Defunctis
!!!OTL: Agnus II
**kern	**kern	**kern	**kern	**kern
*Ibass	*Itenor	*Itenor	*Icalto	*Icant
!Bassus	!Tenor 2	!Tenor 1	!Altus	!Cantus
*clefF4	*clefGv2	*clefGv2	*clefG2	*clefG2
*k[]	*k[]	*k[]	*k[]	*k[]
*?:X	*?:X	*?:X	*?:X	*?:X
*M4/2	*M4/2	*M4/2	*M4/2	*M4/2
=1	=1	=1	=1	=1
1r	0d	0r	1r	0r
[1G	.	.	[1d	.
=2	=2	=2	=2	=2
1G]	1B	0r	1d]	0g
1E	1G	.	1c#	.
=3	=3	=3	=3	=3
1D	1A	0r	1d	1f#
1G	1B	.	1d	1g
=4	=4	=4	=4	=4
1C	1.c	0G	1e	0g
1GG	.	.	2r	.
.	2B	.	2d	.
=5	=5	=5	=5	=5
1D	2A	1F#	2.d	2a
.	1d	.	.	2a
.	.	.	4c	.
1r	.	1G	4B	2b
.	.	.	4G	.
.	2e	.	2g	[2cc
=6	=6	=6	=6	=6
0r	0d	0G	0g	2cc]
.	.	.	.	4b
.	.	.	.	4a
.	.	.	.	1b
=7	=7	=7	=7	=7
1r	2c	1A	2e	[0cc
.	2A	.	2c	.
1F	1A	2r	1c	.
.	.	2A	.	.
=8	=8	=8	=8	=8
1F	2c	1A	2A	1cc]
.	4F	.	2c	.
.	4G	.	.	.
2D	4A	[1A	2d	1r
.	4B	.	.	.
2C	2c	.	2e	.
=9	=9	=9	=9	=9
2D	2B	2A]	2f	0r
2E	2B	2G	4e	.
.	.	.	4d	.
2.F	1A	2A	2c	.
.	.	2F	[2f	.
8E	.	.	.	.
8D	.	.	.	.
=10	=10	=10	=10	=10
1C	1c	1G	2f]	1cc
.	.	.	2e	.
1F	2r	1A	1f	1cc
.	2c	.	.	.
=11	=11	=11	=11	=11
0r	1c	0r	1e	2a
.	.	.	.	2g
.	2A	.	1e	2a
.	2G	.	.	2b
=12	=12	=12	=12	=12
0r	2A	2r	1.e	2cc
.	2B	2G	.	2b
.	2c	2A	.	2a
.	[2d	2B	2d	[2g
=13	=13	=13	=13	=13
0r	4d]	2c	2e	2g]
.	4c	.	.	.
.	1c	2A	2c	2f#
.	.	1G	1d	[1g
.	2B	.	.	.
=14	=14	=14	=14	=14
0C	0c	2r	1e	1g]
.	.	1G	.	.
.	.	.	1e	1r
.	.	[2A	.	.
=15	=15	=15	=15	=15
1D	1r	2A]	1f#	0r
.	.	1B	.	.
1E	1B	.	1g	.
.	.	[2G	.	.
=16	=16	=16	=16	=16
0C	1c	2G]	1e	0r
.	.	2.A	.	.
.	2e	.	2.c	.
.	.	4G	.	.
.	2e	[2G	.	.
.	.	.	4B	.
=17	=17	=17	=17	=17
2.D	2.d	2G]	2A	0r
.	.	2F#	2A	.
4D	4d	.	.	.
1GG	1d	1G	1B	.
=18	=18	=18	=18	=18
0r	1r	0c	0e	0g
.	[1c	.	.	.
=19	=19	=19	=19	=19
0r	1c]	1A	1f#	1a
.	1d	1G	[1g	1b
=20	=20	=20	=20	=20
0r	2e	1c	2g]	1g
.	1c	.	2e	.
.	.	1F	[1f	[1a
.	[2d	.	.	.
=21	=21	=21	=21	=21
0r	4d]	1F	2f]	2a]
.	4c	.	.	.
.	1c	.	2e	2a
.	.	1G	1d	[1g
.	2B	.	.	.
=22	=22	=22	=22	=22
0C	1c	0G	1e	1g]
.	1r	.	2r	[1cc
.	.	.	[2e	.
=23	=23	=23	=23	=23
1AA	1c	1A	2e]	2cc]
.	.	.	2f#	2cc
1GG	1d	1B	[1g	4b
.	.	.	.	4cc
.	.	.	.	4dd
.	.	.	.	4b
=24	=24	=24	=24	=24
1C	2e	0G	2g]	1cc
.	2.c	.	2e	.
1GG	.	.	[1d	2dd
.	4B	.	.	.
.	2B	.	.	[2g
=25	=25	=25	=25	=25
1.D	1A	1A	1d]	2g]
.	.	.	.	4f#
.	.	.	.	4e
.	1d	1A	1d	2f#
2D	.	.	.	2f#
=26	=26	=26	=26	=26
[0GG	[0B	[0G	[0d	[0g
=27	=27	=27	=27	=27
0GG]	0B]	0G]	0d]	0g]
==	==	==	==	==
*-	*-	*-	*-	*-
!!!CDT: 1525/^1526/-1594/2/2
!!!OCY: Italia
!!!AGN: Mass (Paraphrase)
!!!AST: renaissance, vocal
!!!ASW: Gregorian Mass
!!!PWK: Masses, Book 1
!!!RNB: Cadence finals: F,G,D
!!!YOR: Le Opere Complete, v. 1, p. 164
!!!YOO: Rome, Italy: Fratelli Scalera
!!!END: 1992//
!!!EED: John Miller
!!!YEC: Copyright 2000, John Miller
!!!YEN: United States of America
!!!YEM: Rights to all derivative electronic formats reserved.
!!!YEM: Refer to licensing agreement for further details.
!!!YEM: This file must be accompanied by the licensing agreement.
!!!YEM: A copy of the licensing agreement may be found at http://www.music-cog.ohio-state.edu/HumdrumDatabases/Palestrina/license.txt
!!!EMD: converted to Humdrum by Bret Aarden
